; generated by Slic3r 1.37.1-prusa3d on 2017-10-20 at 23:26:48

; 

; external perimeters extrusion width = 0.56mm
; perimeters extrusion width = 0.56mm
; infill extrusion width = 0.56mm
; solid infill extrusion width = 0.56mm
; top infill extrusion width = 0.50mm
; support material extrusion width = 0.50mm
; first layer extrusion width = 0.60mm

M107
M190 S55 ; set bed temperature and wait for it to be reached
M104 S215 ; set temperature
G28 ; home all axes
G1 Z5 F5000 ; lift nozzle

; Filament gcode

M109 S215 ; set temperature and wait for it to be reached
G21 ; set units to millimeters
G90 ; use absolute coordinates
M82 ; use absolute distances for extrusion
G92 E0
G1 Z0.350 F7800.000
G1 E-2.00000 F2400.00000
G92 E0
G1 X90.190 Y62.959 F7800.000
G1 E2.00000 F2400.00000
G1 F1800
G1 X91.304 Y62.391 E2.11374
G1 X92.505 Y62.041 E2.22747
G1 X93.751 Y61.924 E2.34121
G1 X106.518 Y62.236 E3.50247
G1 X107.383 Y62.378 E3.58221
G1 X108.222 Y62.633 E3.66194
G1 X109.020 Y62.996 E3.74167
G1 X109.768 Y63.465 E3.82199
G1 X110.557 Y64.136 E3.91614
G1 X135.046 Y88.632 E7.06572
G1 X135.726 Y89.504 E7.16621
G1 X137.096 Y91.769 E7.40697
G1 X137.521 Y92.762 E7.50516
G1 X137.780 Y93.810 E7.60335
G1 X137.864 Y94.829 E7.69634
G1 X137.848 Y106.627 E8.76909
G1 X137.722 Y107.527 E8.85171
G1 X137.475 Y108.401 E8.93433
G1 X137.113 Y109.228 E9.01637
G1 X136.638 Y110.002 E9.09899
G1 X135.893 Y110.878 E9.20352
G1 X109.505 Y136.768 E12.56499
G1 X108.746 Y137.376 E12.65338
G1 X107.901 Y137.869 E12.74234
G1 X106.999 Y138.230 E12.83073
G1 X106.047 Y138.457 E12.91969
G1 X102.715 Y138.819 E13.22449
G1 X95.724 Y138.802 E13.86013
G1 X92.829 Y138.221 E14.12863
G1 X91.849 Y137.815 E14.22509
G1 X90.946 Y137.258 E14.32154
G1 X90.108 Y136.528 E14.42261
G1 X65.112 Y110.635 E17.69515
G1 X64.517 Y109.882 E17.78238
G1 X64.035 Y109.046 E17.87019
G1 X63.681 Y108.154 E17.95742
G1 X63.459 Y107.214 E18.04523
G1 X63.375 Y106.195 E18.13823
G1 X63.386 Y92.741 E19.36156
G1 X63.496 Y91.871 E19.44129
G1 X63.719 Y91.023 E19.52103
G1 X64.052 Y90.212 E19.60076
G1 X64.493 Y89.447 E19.68107
G1 X65.221 Y88.541 E19.78675
G1 X89.207 Y63.723 E22.92520
G1 X90.131 Y63.005 E23.03154
G1 E21.03154 F2400.00000
G92 E0
G1 X93.746 Y68.549 F7800.000
G1 E2.00000 F2400.00000
G1 F1800
G1 X93.746 Y80.129 E3.05295
G1 E1.05295 F2400.00000
G92 E0
G1 X70.000 Y106.163 F7800.000
G1 E2.00000 F2400.00000
G1 F1800
G1 X70.000 Y93.129 E3.18520
G1 X71.250 Y93.129 E3.29884
G1 X71.250 Y105.882 E4.45847
G1 X72.500 Y105.882 E4.57211
G1 X72.500 Y93.129 E5.73174
G1 X73.749 Y93.129 E5.84538
G1 X73.749 Y105.882 E7.00501
G1 X74.999 Y105.882 E7.11866
G1 X74.999 Y93.129 E8.27829
G1 X76.249 Y93.129 E8.39193
G1 X76.249 Y105.882 E9.55156
G1 X77.499 Y105.882 E9.66520
G1 X77.499 Y93.129 E10.82483
G1 X78.748 Y93.129 E10.93847
G1 X78.748 Y105.882 E12.09810
G1 X79.998 Y105.882 E12.21174
G1 X79.998 Y94.865 E13.21355
G1 X81.248 Y94.865 E13.32720
G1 X81.248 Y105.882 E14.32901
G1 X82.498 Y105.882 E14.44265
G1 X82.498 Y94.865 E15.44446
G1 X83.748 Y94.865 E15.55810
G1 X83.748 Y105.882 E16.55991
G1 X84.997 Y105.882 E16.67355
G1 X84.997 Y94.865 E17.67537
G1 X86.247 Y94.865 E17.78901
G1 X86.247 Y105.882 E18.79082
G1 X87.497 Y105.882 E18.90446
G1 X87.497 Y94.865 E19.90627
G1 X88.747 Y94.865 E20.01991
G1 X88.747 Y105.882 E21.02172
G1 X89.996 Y105.882 E21.13537
G1 X89.996 Y94.865 E22.13718
G1 X91.246 Y94.865 E22.25082
G1 X91.246 Y105.882 E23.25263
G1 X92.496 Y105.882 E23.36627
G1 X92.496 Y94.865 E24.36808
G1 X93.746 Y94.865 E24.48172
G1 X93.746 Y105.882 E25.48353
G1 X94.865 Y105.882 E25.58527
G1 X94.865 Y119.163 E26.79292
G1 X93.746 Y119.163 E26.89466
G1 X93.746 Y130.181 E27.89647
G1 X94.865 Y130.181 E27.99820
G1 X94.865 Y131.916 E28.15602
G1 X94.996 Y131.916 E28.16793
G1 X94.996 Y68.830 E33.90431
G1 X96.245 Y68.830 E34.01796
G1 X96.245 Y132.198 E39.77991
G1 X102.494 Y132.198 F7800.000
G1 F1800
G1 X102.494 Y102.121 E42.51479
G1 X102.276 Y102.367 E42.54473
G1 X101.878 Y102.694 E42.59156
G1 X101.244 Y103.038 E42.65709
G1 X101.244 Y131.916 E45.28299
G1 X99.995 Y131.916 E45.39663
G1 X99.995 Y103.283 E48.00026
G1 X99.296 Y103.207 E48.06414
G1 X98.745 Y103.033 E48.11670
G1 X98.745 Y131.916 E50.74301
G1 X97.495 Y131.916 E50.85665
G1 X97.495 Y102.108 E53.56714
G1 X97.235 Y101.770 E53.60590
G1 X96.942 Y101.197 E53.66443
G1 X96.768 Y100.577 E53.72296
G1 X96.717 Y100.064 E53.76982
G1 X96.768 Y99.423 E53.82835
G1 X96.942 Y98.803 E53.88687
G1 X97.235 Y98.230 E53.94539
G1 X97.495 Y97.892 E53.98416
G1 X97.495 Y68.830 E56.62676
G1 X98.745 Y68.830 E56.74040
G1 X98.745 Y96.967 E59.29882
G1 X99.296 Y96.793 E59.35139
G1 X99.995 Y96.717 E59.41526
G1 X99.995 Y68.830 E61.95100
G1 X101.244 Y68.830 E62.06464
G1 X101.244 Y96.962 E64.62265
G1 X101.877 Y97.306 E64.68816
G1 X102.276 Y97.633 E64.73503
G1 X102.494 Y97.879 E64.76495
G1 X102.494 Y68.830 E67.40637
G1 X103.744 Y68.830 E67.52001
G1 X103.744 Y131.916 E73.25640
G1 X104.994 Y131.916 E73.37004
G1 X104.994 Y68.830 E79.10642
G1 X105.882 Y68.830 E79.18719
G1 X105.882 Y94.865 E81.55448
G1 X106.244 Y94.865 E81.58735
G1 X106.244 Y107.618 E82.74698
G1 X107.493 Y107.618 E82.86062
G1 X107.493 Y94.865 E84.02025
G1 X108.743 Y94.865 E84.13389
G1 X108.743 Y105.882 E85.13570
G1 X109.993 Y105.882 E85.24935
G1 X109.993 Y94.865 E86.25116
G1 X111.243 Y94.865 E86.36480
G1 X111.243 Y105.882 E87.36661
G1 X112.492 Y105.882 E87.48025
G1 X112.492 Y94.865 E88.48206
G1 X113.742 Y94.865 E88.59570
G1 X113.742 Y105.882 E89.59752
G1 X114.992 Y105.882 E89.71116
G1 X114.992 Y94.865 E90.71297
G1 X116.242 Y94.865 E90.82661
G1 X116.242 Y105.882 E91.82842
G1 X117.492 Y105.882 E91.94206
G1 X117.492 Y94.865 E92.94387
G1 X118.741 Y94.865 E93.05752
G1 X118.741 Y105.882 E94.05933
G1 X119.991 Y105.882 E94.17297
G1 X119.991 Y93.129 E95.33260
G1 X121.241 Y93.129 E95.44624
G1 X121.241 Y105.882 E96.60587
G1 X122.491 Y105.882 E96.71951
G1 X122.491 Y93.129 E97.87914
G1 X123.740 Y93.129 E97.99278
G1 X123.740 Y105.882 E99.15241
G1 X124.990 Y105.882 E99.26606
G1 X124.990 Y93.129 E100.42569
G1 X126.240 Y93.129 E100.53933
G1 X126.240 Y105.882 E101.69896
G1 X127.490 Y105.882 E101.81260
G1 X127.490 Y93.129 E102.97223
G1 X128.740 Y93.129 E103.08587
G1 X128.740 Y105.882 E104.24550
G1 X129.989 Y105.882 E104.35914
G1 X129.989 Y93.129 E105.51877
G1 X130.181 Y93.129 E105.53617
G1 X130.181 Y94.865 E105.69399
G1 X131.239 Y94.865 E105.79023
G1 X131.239 Y106.163 E106.81761
G1 E104.81761 F2400.00000
G92 E0
G1 X100.302 Y100.202 F7800.000
G1 E2.00000 F2400.00000
G1 F1800
G1 X100.257 Y100.257 E2.00647
G1 X100.139 Y100.335 E2.01934
G1 X100.000 Y100.363 E2.03222
G1 X99.861 Y100.335 E2.04510
G1 X99.743 Y100.257 E2.05797
G1 X99.665 Y100.139 E2.07085
G1 X99.637 Y100.000 E2.08372
G1 X99.665 Y99.861 E2.09660
G1 X99.743 Y99.743 E2.10947
G1 X99.861 Y99.665 E2.12235
G1 X100.000 Y99.637 E2.13523
G1 X100.142 Y99.666 E2.14840
G1 X100.257 Y99.743 E2.16096
G1 X100.335 Y99.861 E2.17384
G1 X100.363 Y100.000 E2.18672
G1 X100.336 Y100.135 E2.19924
G1 X100.824 Y100.550 F7800.000
G1 F1800
G1 X100.701 Y100.701 E2.21690
G1 X100.550 Y100.824 E2.23457
G1 X100.379 Y100.915 E2.25223
G1 X100.193 Y100.972 E2.26989
G1 X100.000 Y100.991 E2.28755
G1 X99.807 Y100.972 E2.30521
G1 X99.621 Y100.915 E2.32287
G1 X99.450 Y100.824 E2.34054
G1 X99.299 Y100.701 E2.35820
G1 X99.176 Y100.550 E2.37586
G1 X99.085 Y100.379 E2.39352
G1 X99.028 Y100.193 E2.41118
G1 X99.009 Y100.000 E2.42884
G1 X99.028 Y99.807 E2.44651
G1 X99.085 Y99.621 E2.46417
G1 X99.176 Y99.450 E2.48183
G1 X99.299 Y99.299 E2.49949
G1 X99.450 Y99.176 E2.51715
G1 X99.621 Y99.085 E2.53481
G1 X99.807 Y99.028 E2.55248
G1 X100.000 Y99.009 E2.57014
G1 X100.187 Y99.028 E2.58720
G1 X100.381 Y99.086 E2.60564
G1 X100.550 Y99.176 E2.62311
G1 X100.701 Y99.299 E2.64077
G1 X100.824 Y99.450 E2.65843
G1 X100.915 Y99.621 E2.67609
G1 X100.972 Y99.807 E2.69375
G1 X100.991 Y100.000 E2.71142
G1 X100.972 Y100.193 E2.72908
G1 X100.915 Y100.379 E2.74674
G1 X100.859 Y100.484 E2.75758
G1 X101.346 Y100.899 F7800.000
G1 F1800
G1 X101.145 Y101.145 E2.78644
G1 X100.899 Y101.346 E2.81529
G1 X100.619 Y101.496 E2.84414
G1 X100.316 Y101.588 E2.87300
G1 X100.000 Y101.619 E2.90185
G1 X99.684 Y101.588 E2.93071
G1 X99.381 Y101.496 E2.95956
G1 X99.101 Y101.346 E2.98842
G1 X98.855 Y101.145 E3.01727
G1 X98.654 Y100.899 E3.04613
G1 X98.504 Y100.619 E3.07498
G1 X98.412 Y100.316 E3.10383
G1 X98.381 Y100.000 E3.13269
G1 X98.412 Y99.684 E3.16154
G1 X98.504 Y99.381 E3.19040
G1 X98.654 Y99.101 E3.21925
G1 X98.855 Y98.855 E3.24811
G1 X99.101 Y98.654 E3.27696
G1 X99.381 Y98.504 E3.30582
G1 X99.684 Y98.412 E3.33467
G1 X100.000 Y98.381 E3.36352
G1 X100.308 Y98.412 E3.39166
G1 X100.620 Y98.505 E3.42129
G1 X100.899 Y98.654 E3.45007
G1 X101.145 Y98.855 E3.47893
G1 X101.346 Y99.101 E3.50778
G1 X101.496 Y99.381 E3.53664
G1 X101.588 Y99.684 E3.56549
G1 X101.619 Y100.000 E3.59435
G1 X101.588 Y100.316 E3.62320
G1 X101.496 Y100.619 E3.65205
G1 X101.381 Y100.833 E3.67409
G1 X101.029 Y100.879 F7800.000
G1 Z0.650 F7800.000
G1 X100.608 Y100.406 F7800.000
G1 F600
G1 X100.517 Y100.517 E3.68299
G1 X100.406 Y100.608 E3.69189
G1 X100.280 Y100.675 E3.70078
G1 X100.143 Y100.717 E3.70968
G1 X100.000 Y100.731 E3.71858
G1 X99.857 Y100.717 E3.72748
G1 X99.720 Y100.675 E3.73638
G1 X99.594 Y100.608 E3.74528
G1 X99.483 Y100.517 E3.75418
G1 X99.392 Y100.406 E3.76308
G1 X99.325 Y100.280 E3.77197
G1 X99.283 Y100.143 E3.78087
G1 X99.269 Y100.000 E3.78977
G1 X99.283 Y99.857 E3.79867
G1 X99.325 Y99.720 E3.80757
G1 X99.392 Y99.594 E3.81647
G1 X99.483 Y99.483 E3.82537
G1 X99.594 Y99.392 E3.83427
G1 X99.720 Y99.325 E3.84316
G1 X99.857 Y99.283 E3.85206
G1 X100.000 Y99.269 E3.86096
G1 X100.125 Y99.282 E3.86879
G1 X100.286 Y99.328 E3.87919
G1 X100.406 Y99.392 E3.88763
G1 X100.517 Y99.483 E3.89653
G1 X100.608 Y99.594 E3.90543
G1 X100.675 Y99.720 E3.91433
G1 X100.717 Y99.857 E3.92322
G1 X100.731 Y100.000 E3.93212
G1 X100.717 Y100.143 E3.94102
G1 X100.643 Y100.340 E3.95410
G1 X101.024 Y100.684 F7800.000
G1 F600
G1 X100.871 Y100.871 E3.96910
G1 X100.684 Y101.024 E3.98409
G1 X100.471 Y101.137 E3.99909
G1 X100.240 Y101.208 E4.01408
G1 X100.000 Y101.231 E4.02908
G1 X99.760 Y101.208 E4.04407
G1 X99.529 Y101.137 E4.05907
G1 X99.316 Y101.024 E4.07406
G1 X99.129 Y100.871 E4.08906
G1 X98.976 Y100.684 E4.10405
G1 X98.863 Y100.471 E4.11905
G1 X98.792 Y100.240 E4.13404
G1 X98.769 Y100.000 E4.14904
G1 X98.792 Y99.760 E4.16403
G1 X98.863 Y99.529 E4.17903
G1 X98.976 Y99.316 E4.19402
G1 X99.129 Y99.129 E4.20902
G1 X99.316 Y98.976 E4.22401
G1 X99.529 Y98.863 E4.23900
G1 X99.760 Y98.792 E4.25400
G1 X100.000 Y98.769 E4.26899
G1 X100.220 Y98.791 E4.28274
G1 X100.475 Y98.865 E4.29924
G1 X100.684 Y98.976 E4.31395
G1 X100.871 Y99.129 E4.32895
G1 X101.024 Y99.316 E4.34394
G1 X101.137 Y99.529 E4.35893
G1 X101.208 Y99.760 E4.37393
G1 X101.231 Y100.000 E4.38892
G1 X101.208 Y100.240 E4.40392
G1 X101.137 Y100.471 E4.41891
G1 X101.059 Y100.618 E4.42925
G1 X101.409 Y101.000 F7800.000
G1 F600
G1 X101.225 Y101.225 E4.44729
G1 X100.962 Y101.440 E4.46838
G1 X100.663 Y101.600 E4.48947
G1 X100.338 Y101.698 E4.51056
G1 X100.000 Y101.732 E4.53166
G1 X99.662 Y101.698 E4.55275
G1 X99.337 Y101.600 E4.57384
G1 X99.038 Y101.440 E4.59493
G1 X98.776 Y101.225 E4.61602
G1 X98.560 Y100.962 E4.63711
G1 X98.400 Y100.663 E4.65820
G1 X98.302 Y100.338 E4.67929
G1 X98.268 Y100.000 E4.70038
G1 X98.302 Y99.662 E4.72147
G1 X98.400 Y99.337 E4.74256
G1 X98.560 Y99.038 E4.76365
G1 X98.775 Y98.776 E4.78475
G1 X99.038 Y98.560 E4.80584
G1 X99.337 Y98.400 E4.82693
G1 X99.662 Y98.302 E4.84802
G1 X100.000 Y98.268 E4.86911
G1 X100.315 Y98.299 E4.88877
G1 X100.664 Y98.401 E4.91136
G1 X100.962 Y98.560 E4.93235
G1 X101.225 Y98.776 E4.95344
G1 X101.440 Y99.038 E4.97454
G1 X101.600 Y99.337 E4.99563
G1 X101.698 Y99.662 E5.01672
G1 X101.732 Y100.000 E5.03781
G1 X101.698 Y100.338 E5.05890
G1 X101.600 Y100.663 E5.07999
G1 X101.452 Y100.939 E5.09947
G1 X101.119 Y100.979 F7800.000
G1 X99.869 Y100.564 F7800.000
G1 F600
G1 X100.342 Y100.092 E5.14924
G1 X100.348 Y99.931 E5.16128
G1 X100.295 Y99.803 E5.17162
G1 X100.251 Y99.749 E5.17681
G1 X100.144 Y99.676 E5.18643
G1 X100.054 Y99.650 E5.19343
G1 X99.937 Y99.651 E5.20215
G1 X99.441 Y100.147 E5.25448
G1 Z0.723 F7800.000
G1 E3.25448 F2400.00000
G92 E0
G1 X96.034 Y97.770 F7800.000
G1 E2.00000 F2400.00000
G1 F3600
G1 X94.628 Y97.770 E2.09160
G1 X94.657 Y97.821 E2.09542
G1 X96.034 Y97.821 E2.18511
G1 X96.034 Y97.770 E2.18842
G1 X91.651 Y99.556 F7800.000
G1 F3600
G1 X90.900 Y98.256 E2.28619
G1 X88.645 Y98.256 E2.43311
G1 X87.894 Y99.556 E2.53089
G1 X85.639 Y99.556 E2.67781
G1 X84.888 Y98.256 E2.77558
G1 X82.633 Y98.256 E2.92250
G1 X81.882 Y99.556 E3.02028
G1 X79.626 Y99.556 E3.16720
G1 X78.876 Y98.256 E3.26497
G1 X76.620 Y98.256 E3.41189
G1 X75.870 Y99.556 E3.50967
G1 X73.614 Y99.556 E3.65659
G1 X72.863 Y98.256 E3.75437
G1 X71.736 Y98.256 E3.82783
G1 X71.736 Y101.292 E4.02555
G1 X72.863 Y101.292 E4.09902
G1 X73.614 Y99.992 E4.19679
G1 X75.870 Y99.992 E4.34371
G1 X76.620 Y101.292 E4.44149
G1 X78.876 Y101.292 E4.58841
G1 X79.626 Y99.992 E4.68618
G1 X81.882 Y99.992 E4.83310
G1 X82.633 Y101.292 E4.93088
G1 X84.888 Y101.292 E5.07780
G1 X85.639 Y99.992 E5.17558
G1 X87.894 Y99.992 E5.32250
G1 X88.645 Y101.292 E5.42027
G1 X90.900 Y101.292 E5.56719
G1 X91.651 Y99.992 E5.66497
G1 X93.907 Y99.992 E5.81189
G1 X94.657 Y101.292 E5.90966
G1 X96.034 Y101.292 E5.99936
G1 X96.034 Y98.256 E6.19709
G1 X94.657 Y98.256 E6.28678
G1 X93.907 Y99.556 E6.38456
G1 X91.651 Y99.556 E6.53148
G1 X90.930 Y97.770 F7800.000
G1 F3600
G1 X88.616 Y97.770 E6.68221
G1 X88.645 Y97.821 E6.68603
G1 X90.900 Y97.821 E6.83295
G1 X90.930 Y97.770 E6.83676
G1 X91.622 Y102.977 F7800.000
G1 F3600
G1 X90.900 Y101.727 E6.93073
G1 X88.645 Y101.727 E7.07765
G1 X87.924 Y102.977 E7.17161
G1 X91.622 Y102.977 E7.41250
G1 X96.034 Y102.977 F7800.000
G1 F3600
G1 X96.034 Y101.727 E7.49388
G1 X94.657 Y101.727 E7.58357
G1 X93.936 Y102.977 E7.67754
G1 X96.034 Y102.977 E7.81422
G1 E5.81422 F2400.00000
G92 E0
G1 X102.977 Y105.288 F7800.000
G1 E2.00000 F2400.00000
G1 F3600
G1 X102.925 Y105.199 E2.00672
G1 X100.670 Y105.199 E2.15364
G1 X99.919 Y106.499 E2.25142
G1 X97.770 Y106.499 E2.39140
G1 X97.770 Y106.934 E2.41978
G1 X99.919 Y106.934 E2.55976
G1 X100.670 Y108.234 E2.65754
G1 X102.925 Y108.234 E2.80446
G1 X102.977 Y108.145 E2.81118
G1 X102.977 Y105.288 E2.99726
G1 X103.676 Y103.027 F7800.000
G1 F3600
G1 X102.925 Y101.727 E3.09504
G1 X102.776 Y101.727 E3.10474
G1 X102.688 Y101.868 E3.11555
G1 X102.272 Y102.356 E3.15734
G1 X101.768 Y102.754 E3.19914
G1 X101.197 Y103.046 E3.24093
G1 X100.580 Y103.221 E3.28273
G1 X99.940 Y103.273 E3.32452
G1 X99.303 Y103.198 E3.36632
G1 X98.757 Y103.027 E3.40357
G1 X97.770 Y103.027 E3.46787
G1 X97.770 Y103.463 E3.49624
G1 X99.919 Y103.463 E3.63623
G1 X100.670 Y104.763 E3.73400
G1 X102.925 Y104.763 E3.88092
G1 X103.676 Y103.463 E3.97870
G1 X104.712 Y103.463 E4.04622
G1 X104.712 Y103.027 E4.07459
G1 X103.676 Y103.027 E4.14212
G1 E2.14212 F2400.00000
G92 E0
G1 X102.977 Y108.759 F7800.000
G1 E2.00000 F2400.00000
G1 F3600
G1 X102.925 Y108.670 E2.00672
G1 X100.670 Y108.670 E2.15364
G1 X99.919 Y109.970 E2.25142
G1 X97.770 Y109.970 E2.39140
G1 X97.770 Y110.406 E2.41978
G1 X99.919 Y110.406 E2.55976
G1 X100.670 Y111.706 E2.65754
G1 X102.925 Y111.706 E2.80446
G1 X102.977 Y111.616 E2.81118
G1 X102.977 Y108.759 E2.99726
G1 X102.977 Y112.230 F7800.000
G1 F3600
G1 X102.925 Y112.141 E3.00398
G1 X100.670 Y112.141 E3.15090
G1 X99.919 Y113.441 E3.24868
G1 X97.770 Y113.441 E3.38866
G1 X97.770 Y113.877 E3.41704
G1 X99.919 Y113.877 E3.55702
G1 X100.670 Y115.177 E3.65480
G1 X102.925 Y115.177 E3.80172
G1 X102.977 Y115.087 E3.80844
G1 X102.977 Y112.230 E3.99453
G1 X102.977 Y115.702 F7800.000
G1 F3600
G1 X102.925 Y115.612 E4.00125
G1 X100.670 Y115.612 E4.14817
G1 X99.919 Y116.912 E4.24594
G1 X97.770 Y116.912 E4.38593
G1 X97.770 Y117.348 E4.41430
G1 X99.919 Y117.348 E4.55429
G1 X100.670 Y118.648 E4.65206
G1 X102.925 Y118.648 E4.79898
G1 X102.977 Y118.559 E4.80570
G1 X102.977 Y115.702 E4.99179
G1 X102.977 Y119.173 F7800.000
G1 F3600
G1 X102.925 Y119.084 E4.99851
G1 X100.670 Y119.084 E5.14543
G1 X99.919 Y120.384 E5.24320
