; generated by Slic3r 1.37.1-prusa3d on 2017-10-19 at 19:53:05

; 

; external perimeters extrusion width = 0.56mm
; perimeters extrusion width = 0.56mm
; infill extrusion width = 0.56mm
; solid infill extrusion width = 0.56mm
; top infill extrusion width = 0.50mm
; first layer extrusion width = 0.60mm

M107
M190 S55 ; set bed temperature and wait for it to be reached
M104 S215 ; set temperature
G28 ; home all axes
G1 Z5 F5000 ; lift nozzle

; Filament gcode

M109 S215 ; set temperature and wait for it to be reached
G21 ; set units to millimeters
G90 ; use absolute coordinates
M82 ; use absolute distances for extrusion
G92 E0
G1 Z0.350 F7800.000
G1 E-2.00000 F2400.00000
G92 E0
G1 X89.741 Y109.231 F7800.000
G1 E2.00000 F2400.00000
G1 F1800
G1 X92.962 Y107.707 E2.11027
G1 X96.457 Y106.759 E2.22230
G1 X100.007 Y106.447 E2.33257
G1 X103.613 Y106.772 E2.44460
G1 X106.502 Y107.528 E2.53700
G1 X107.397 Y107.856 E2.56649
G1 X109.798 Y108.977 E2.64847
G1 X110.628 Y109.471 E2.67835
G1 X113.049 Y111.197 E2.77036
G1 X115.160 Y113.272 E2.86196
G1 X115.818 Y114.039 E2.89322
G1 X117.516 Y116.488 E2.98542
G1 X119.040 Y119.709 E3.09569
G1 X119.988 Y123.204 E3.20772
G1 X120.300 Y126.747 E3.31780
G1 X119.975 Y130.360 E3.43002
G1 X119.219 Y133.249 E3.52243
G1 X118.891 Y134.144 E3.55191
G1 X117.770 Y136.545 E3.63390
G1 X117.276 Y137.375 E3.66378
G1 X115.550 Y139.796 E3.75578
G1 X113.475 Y141.907 E3.84739
G1 X112.708 Y142.565 E3.87864
G1 X110.259 Y144.263 E3.97085
G1 X107.038 Y145.787 E4.08112
G1 X103.543 Y146.735 E4.19315
G1 X99.999 Y147.047 E4.30322
G1 X96.387 Y146.722 E4.41545
G1 X93.498 Y145.966 E4.50785
G1 X92.603 Y145.638 E4.53734
G1 X90.202 Y144.517 E4.61932
G1 X89.372 Y144.023 E4.64920
G1 X86.951 Y142.297 E4.74121
G1 X84.840 Y140.222 E4.83281
G1 X84.178 Y139.450 E4.86426
G1 X82.484 Y137.006 E4.95627
G1 X80.960 Y133.785 E5.06654
G1 X80.012 Y130.290 E5.17857
G1 X79.700 Y126.746 E5.28864
G1 X80.025 Y123.134 E5.40087
G1 X80.781 Y120.245 E5.49327
G1 X81.109 Y119.350 E5.52276
G1 X82.230 Y116.949 E5.60475
G1 X82.724 Y116.119 E5.63463
G1 X84.450 Y113.698 E5.72663
G1 X86.525 Y111.587 E5.81823
G1 X87.292 Y110.929 E5.84949
G1 X89.679 Y109.274 E5.93937
G1 E3.93937 F2400.00000
G92 E0
G1 X107.613 Y131.088 F7800.000
G1 E2.00000 F2400.00000
G1 F1800
G1 X107.306 Y131.586 E2.01808
G1 X106.760 Y132.365 E2.04751
G1 X106.399 Y132.766 E2.06423
G1 X105.674 Y133.491 E2.09596
G1 X104.433 Y134.385 E2.14326
G1 X103.042 Y135.054 E2.19104
G1 X101.553 Y135.468 E2.23886
G1 X100.048 Y135.613 E2.28563
G1 X98.530 Y135.558 E2.33263
G1 X96.999 Y135.231 E2.38107
G1 X95.538 Y134.637 E2.42986
G1 X94.723 Y134.126 E2.45964
G1 X94.147 Y133.722 E2.48139
G1 X93.024 Y132.600 E2.53051
G1 X92.114 Y131.300 E2.57962
G1 X91.433 Y129.840 E2.62946
G1 X91.062 Y128.274 E2.67927
G1 X90.974 Y126.699 E2.72805
G1 X91.154 Y125.143 E2.77652
G1 X91.597 Y123.645 E2.82486
G1 X92.290 Y122.251 E2.87304
G1 X93.211 Y121.001 E2.92108
G1 X94.331 Y119.932 E2.96896
G1 X95.614 Y119.077 E3.01669
G1 X97.022 Y118.459 E3.06426
G1 X98.514 Y118.095 E3.11176
G1 X100.052 Y117.995 E3.15947
G1 X101.582 Y118.197 E3.20720
G1 X103.027 Y118.658 E3.25415
G1 X104.350 Y119.358 E3.30046
G1 X105.518 Y120.249 E3.34590
G1 X106.534 Y121.310 E3.39137
G1 X107.356 Y122.540 E3.43716
G1 X107.950 Y123.891 E3.48280
G1 X108.009 Y124.131 E3.49046
G1 X108.305 Y124.826 E3.51383
G1 X108.573 Y126.074 E3.55333
G1 X108.626 Y126.675 E3.57200
G1 X108.628 Y127.476 E3.59677
G1 X108.565 Y128.196 E3.61913
G1 X108.434 Y128.892 E3.64106
G1 X108.222 Y129.683 E3.66640
G1 X107.990 Y130.279 E3.68618
G1 X107.644 Y131.020 E3.71149
G1 X107.062 Y130.791 F7800.000
G1 F1800
G1 X106.784 Y131.242 E3.72788
G1 X106.270 Y131.975 E3.75557
G1 X105.945 Y132.336 E3.77059
G1 X105.267 Y133.014 E3.80026
G1 X104.113 Y133.846 E3.84429
G1 X102.821 Y134.467 E3.88864
G1 X101.438 Y134.852 E3.93305
G1 X100.029 Y134.987 E3.97684
G1 X98.607 Y134.936 E4.02088
G1 X97.183 Y134.631 E4.06593
G1 X95.824 Y134.079 E4.11133
G1 X95.068 Y133.605 E4.13892
G1 X94.550 Y133.242 E4.15850
G1 X93.505 Y132.197 E4.20423
G1 X92.657 Y130.986 E4.24996
G1 X92.027 Y129.634 E4.29613
G1 X91.683 Y128.183 E4.34225
G1 X91.601 Y126.718 E4.38766
G1 X91.769 Y125.269 E4.43280
G1 X92.181 Y123.875 E4.47779
G1 X92.826 Y122.577 E4.52261
G1 X93.682 Y121.415 E4.56727
G1 X94.722 Y120.422 E4.61178
G1 X95.915 Y119.627 E4.65613
G1 X97.223 Y119.053 E4.70033
G1 X98.608 Y118.715 E4.74442
G1 X100.032 Y118.623 E4.78858
G1 X101.445 Y118.809 E4.83267
G1 X102.784 Y119.236 E4.87618
G1 X104.012 Y119.886 E4.91917
G1 X105.100 Y120.716 E4.96151
G1 X106.045 Y121.702 E5.00377
G1 X106.806 Y122.842 E5.04617
G1 X107.356 Y124.092 E5.08843
G1 X107.414 Y124.329 E5.09598
G1 X107.707 Y125.016 E5.11908
G1 X107.954 Y126.167 E5.15552
G1 X108.001 Y126.703 E5.17216
G1 X108.003 Y127.449 E5.19524
G1 X107.945 Y128.110 E5.21578
G1 X107.824 Y128.753 E5.23602
G1 X107.627 Y129.489 E5.25958
G1 X107.415 Y130.034 E5.27767
G1 X107.093 Y130.723 E5.30121
G1 X106.511 Y130.494 F7800.000
G1 F1800
G1 X106.261 Y130.899 E5.31592
G1 X105.780 Y131.585 E5.34186
G1 X105.492 Y131.906 E5.35519
G1 X104.861 Y132.536 E5.38280
G1 X103.792 Y133.307 E5.42356
G1 X102.600 Y133.879 E5.46449
G1 X101.324 Y134.235 E5.50548
G1 X100.010 Y134.361 E5.54630
G1 X98.684 Y134.313 E5.58736
G1 X97.368 Y134.032 E5.62902
G1 X96.110 Y133.521 E5.67103
G1 X95.414 Y133.084 E5.69645
G1 X94.953 Y132.761 E5.71385
G1 X93.986 Y131.794 E5.75619
G1 X93.201 Y130.673 E5.79854
G1 X92.620 Y129.428 E5.84104
G1 X92.304 Y128.093 E5.88347
G1 X92.228 Y126.737 E5.92552
G1 X92.383 Y125.394 E5.96733
G1 X92.765 Y124.104 E6.00896
G1 X93.361 Y122.904 E6.05042
G1 X94.153 Y121.830 E6.09171
G1 X95.114 Y120.912 E6.13284
G1 X96.216 Y120.177 E6.17382
G1 X97.424 Y119.647 E6.21464
G1 X98.702 Y119.336 E6.25532
G1 X100.011 Y119.251 E6.29593
G1 X101.308 Y119.421 E6.33639
G1 X102.541 Y119.815 E6.37644
G1 X103.674 Y120.415 E6.41611
G1 X104.683 Y121.183 E6.45534
G1 X105.556 Y122.095 E6.49440
G1 X106.256 Y123.144 E6.53342
G1 X106.762 Y124.294 E6.57230
G1 X106.819 Y124.527 E6.57973
G1 X107.108 Y125.206 E6.60256
G1 X107.335 Y126.261 E6.63594
G1 X107.376 Y126.731 E6.65056
G1 X107.378 Y127.422 E6.67195
G1 X107.325 Y128.025 E6.69066
G1 X107.214 Y128.614 E6.70922
G1 X107.032 Y129.294 E6.73099
G1 X106.840 Y129.788 E6.74739
G1 X106.543 Y130.426 E6.76917
G1 X106.756 Y130.901 F7800.000
G1 E4.76917 F2400.00000
G92 E0
G1 X110.452 Y132.782 F7800.000
G1 E2.00000 F2400.00000
G1 F1800
G1 X109.245 Y134.505 E2.06509
G1 X107.758 Y135.992 E2.13019
G1 X106.035 Y137.199 E2.19528
G1 X104.128 Y138.088 E2.26038
G1 X102.096 Y138.633 E2.32547
G1 X100.000 Y138.816 E2.39056
G1 X97.904 Y138.633 E2.45566
G1 X95.872 Y138.088 E2.52075
G1 X93.965 Y137.199 E2.58584
G1 X92.242 Y135.992 E2.65094
G1 X90.755 Y134.505 E2.71603
G1 X89.548 Y132.782 E2.78113
G1 X88.659 Y130.875 E2.84622
G1 X88.114 Y128.843 E2.91131
G1 X87.931 Y126.747 E2.97641
G1 X88.114 Y124.651 E3.04150
G1 X88.659 Y122.619 E3.10660
G1 X89.548 Y120.712 E3.17169
G1 X90.755 Y118.989 E3.23678
G1 X92.242 Y117.501 E3.30188
G1 X93.965 Y116.295 E3.36697
G1 X95.872 Y115.406 E3.43207
G1 X97.904 Y114.861 E3.49716
G1 X100.000 Y114.678 E3.56225
G1 X102.096 Y114.861 E3.62735
G1 X104.128 Y115.406 E3.69244
G1 X106.035 Y116.295 E3.75753
G1 X107.758 Y117.501 E3.82263
G1 X109.245 Y118.989 E3.88772
G1 X110.452 Y120.712 E3.95282
G1 X111.341 Y122.619 E4.01791
G1 X111.886 Y124.651 E4.08300
G1 X112.069 Y126.747 E4.14810
G1 X111.886 Y128.843 E4.21319
G1 X111.341 Y130.875 E4.27829
G1 X110.484 Y132.714 E4.34106
G1 X110.964 Y133.140 F7800.000
G1 F1800
G1 X109.726 Y134.908 E4.40784
G1 X108.161 Y136.473 E4.47632
G1 X106.348 Y137.742 E4.54480
G1 X104.342 Y138.678 E4.61328
G1 X102.205 Y139.250 E4.68175
G1 X100.000 Y139.443 E4.75023
G1 X97.795 Y139.250 E4.81871
G1 X95.658 Y138.678 E4.88718
G1 X93.652 Y137.742 E4.95566
G1 X91.839 Y136.473 E5.02414
G1 X90.274 Y134.908 E5.09261
G1 X89.005 Y133.095 E5.16109
G1 X88.069 Y131.089 E5.22957
G1 X87.496 Y128.952 E5.29805
G1 X87.304 Y126.747 E5.36652
G1 X87.496 Y124.542 E5.43500
G1 X88.069 Y122.405 E5.50348
G1 X89.005 Y120.399 E5.57195
G1 X90.274 Y118.586 E5.64043
G1 X91.839 Y117.021 E5.70891
G1 X93.652 Y115.752 E5.77738
G1 X95.658 Y114.816 E5.84586
G1 X97.795 Y114.243 E5.91434
G1 X100.000 Y114.051 E5.98282
G1 X102.205 Y114.243 E6.05129
G1 X104.342 Y114.816 E6.11977
G1 X106.348 Y115.752 E6.18825
G1 X108.161 Y117.021 E6.25672
G1 X109.726 Y118.586 E6.32520
G1 X110.995 Y120.399 E6.39368
G1 X111.931 Y122.405 E6.46216
G1 X112.504 Y124.542 E6.53063
G1 X112.696 Y126.747 E6.59911
G1 X112.504 Y128.952 E6.66759
G1 X111.931 Y131.089 E6.73606
G1 X111.004 Y133.077 E6.80391
G1 X111.476 Y133.498 F7800.000
G1 F1800
G1 X110.207 Y135.311 E6.87239
G1 X108.564 Y136.953 E6.94425
G1 X106.662 Y138.286 E7.01611
G1 X104.557 Y139.267 E7.08797
G1 X102.314 Y139.868 E7.15983
G1 X100.000 Y140.071 E7.23169
G1 X97.686 Y139.868 E7.30355
G1 X95.443 Y139.267 E7.37541
G1 X93.338 Y138.286 E7.44727
G1 X91.436 Y136.953 E7.51913
G1 X89.793 Y135.311 E7.59099
G1 X88.461 Y133.409 E7.66285
G1 X87.480 Y131.304 E7.73471
G1 X86.879 Y129.061 E7.80657
G1 X86.676 Y126.747 E7.87843
G1 X86.879 Y124.433 E7.95029
G1 X87.480 Y122.190 E8.02215
G1 X88.461 Y120.085 E8.09401
G1 X89.793 Y118.183 E8.16587
G1 X91.436 Y116.540 E8.23773
G1 X93.338 Y115.208 E8.30959
G1 X95.443 Y114.227 E8.38145
G1 X97.686 Y113.626 E8.45331
G1 X100.000 Y113.423 E8.52517
G1 X102.314 Y113.626 E8.59703
G1 X104.557 Y114.227 E8.66889
G1 X106.662 Y115.208 E8.74075
G1 X108.564 Y116.540 E8.81261
G1 X110.207 Y118.183 E8.88447
G1 X111.539 Y120.085 E8.95633
G1 X112.520 Y122.190 E9.02819
G1 X113.121 Y124.433 E9.10005
G1 X113.324 Y126.747 E9.17191
G1 X113.121 Y129.061 E9.24378
G1 X112.520 Y131.304 E9.31564
G1 X111.519 Y133.437 E9.38854
G1 X110.976 Y133.497 F7800.000
G1 E7.38854 F2400.00000
G92 E0
G1 X110.995 Y122.321 F7800.000
G1 E2.00000 F2400.00000
G1 F1800
G1 X105.008 Y116.333 E2.26894
G1 X103.967 Y115.848 E2.30542
G1 X103.487 Y115.719 E2.32121
G1 X111.028 Y123.260 E2.65996
G1 X111.360 Y124.500 E2.70070
G1 X102.247 Y115.387 E3.11002
G1 X102.014 Y115.324 E3.11769
G1 X101.207 Y115.254 E3.14342
G1 X111.493 Y125.540 E3.60545
G1 X111.580 Y126.534 E3.63714
G1 X108.090 Y123.044 E3.79392
G1 X108.396 Y123.740 E3.81808
G1 X108.455 Y123.983 E3.82603
G1 X108.703 Y124.564 E3.84609
G1 X111.541 Y127.402 E3.97359
G1 X111.468 Y128.237 E4.00019
G1 X108.983 Y125.752 E4.11180
G1 X109.038 Y126.004 E4.12000
G1 X109.095 Y126.770 E4.14440
G1 X111.351 Y129.027 E4.24576
G1 X111.160 Y129.742 E4.26928
G1 X109.082 Y127.664 E4.36262
G1 X109.030 Y128.260 E4.38160
G1 X108.988 Y128.478 E4.38866
G1 X110.968 Y130.458 E4.47757
G1 X110.899 Y130.714 E4.48600
G1 X110.714 Y131.111 E4.49992
G1 X108.829 Y129.226 E4.58458
G1 X108.628 Y129.932 E4.60789
G1 X110.426 Y131.730 E4.68864
G1 X110.137 Y132.348 E4.71032
G1 X108.367 Y130.579 E4.78981
G1 X108.079 Y131.197 E4.81149
G1 X109.791 Y132.909 E4.88837
G1 X109.417 Y133.443 E4.90906
G1 X107.743 Y131.769 E4.98424
G1 X107.374 Y132.306 E5.00496
G1 X109.044 Y133.976 E5.07997
G1 X108.885 Y134.202 E5.08874
G1 X108.624 Y134.464 E5.10047
G1 X106.981 Y132.821 E5.17428
G1 X106.540 Y133.287 E5.19467
G1 X108.170 Y134.917 E5.26788
G1 X107.717 Y135.371 E5.28825
G1 X106.087 Y133.741 E5.36146
G1 X105.978 Y133.850 E5.36634
G1 X105.577 Y134.139 E5.38204
G1 X107.229 Y135.791 E5.45624
G1 X106.696 Y136.164 E5.47693
G1 X105.050 Y134.519 E5.55084
G1 X104.674 Y134.790 E5.56558
G1 X104.498 Y134.874 E5.57176
G1 X106.162 Y136.538 E5.64649
G1 X105.799 Y136.792 E5.66055
G1 X105.601 Y136.884 E5.66749
G1 X103.886 Y135.168 E5.74456
G1 X103.273 Y135.463 E5.76615
G1 X104.983 Y137.173 E5.84295
G1 X104.364 Y137.461 E5.86463
G1 X102.573 Y135.671 E5.94506
G1 X101.864 Y135.868 E5.96845
G1 X103.711 Y137.715 E6.05140
G1 X102.995 Y137.907 E6.07493
G1 X101.074 Y135.985 E6.16124
G1 X100.246 Y136.064 E6.18765
G1 X102.280 Y138.098 E6.27900
G1 X102.014 Y138.169 E6.28773
G1 X101.490 Y138.215 E6.30446
G1 X99.330 Y136.056 E6.40145
G1 X98.472 Y136.025 E6.42873
G1 X98.371 Y136.003 E6.43202
G1 X100.655 Y138.288 E6.53465
G1 X100.000 Y138.346 E6.55554
G1 X99.787 Y138.327 E6.56234
G1 X97.216 Y135.757 E6.67780
G1 X96.861 Y135.680 E6.68935
G1 X95.804 Y135.251 E6.72557
G1 X98.793 Y138.240 E6.85981
G1 X97.986 Y138.169 E6.88554
G1 X97.752 Y138.107 E6.89322
G1 X88.640 Y128.994 E7.30253
G1 X88.578 Y128.761 E7.31020
G1 X88.507 Y127.954 E7.33593
G1 X91.374 Y130.821 E7.46469
G1 X90.988 Y129.995 E7.49364
G1 X90.844 Y129.384 E7.51358
G1 X88.420 Y126.960 E7.62245
G1 X88.401 Y126.747 E7.62924
G1 X88.459 Y126.092 E7.65014
G1 X90.590 Y128.223 E7.74588
G1 X90.536 Y127.262 E7.77645
G1 X88.532 Y125.257 E7.86649
G1 X88.578 Y124.733 E7.88321
G1 X88.649 Y124.467 E7.89195
G1 X90.541 Y126.360 E7.97697
G1 X90.636 Y125.547 E8.00296
G1 X88.840 Y123.752 E8.08360
G1 X89.032 Y123.036 E8.10712
G1 X90.773 Y124.778 E8.18534
G1 X90.981 Y124.078 E8.20853
G1 X89.286 Y122.383 E8.28465
G1 X89.574 Y121.764 E8.30633
G1 X91.201 Y123.391 E8.37938
G1 X91.502 Y122.785 E8.40088
G1 X89.863 Y121.146 E8.47449
G1 X89.955 Y120.948 E8.48143
G1 X90.209 Y120.585 E8.49550
G1 X91.803 Y122.179 E8.56708
G1 X91.889 Y122.006 E8.57321
G1 X92.164 Y121.632 E8.58794
G1 X90.583 Y120.051 E8.65895
G1 X90.956 Y119.518 E8.67964
G1 X92.549 Y121.110 E8.75115
G1 X92.858 Y120.690 E8.76772
G1 X92.949 Y120.603 E8.77171
G1 X91.376 Y119.030 E8.84236
G1 X91.830 Y118.577 E8.86273
G1 X93.413 Y120.160 E8.93385
G1 X93.877 Y119.717 E8.95423
G1 X92.283 Y118.123 E9.02583
G1 X92.545 Y117.862 E9.03756
G1 X92.771 Y117.703 E9.04634
G1 X94.394 Y119.327 E9.11925
G1 X94.938 Y118.964 E9.14003
G1 X93.304 Y117.330 E9.21343
G1 X93.838 Y116.956 E9.23412
G1 X95.498 Y118.616 E9.30868
G1 X96.128 Y118.339 E9.33055
G1 X94.399 Y116.610 E9.40824
G1 X95.017 Y116.321 E9.42992
G1 X96.759 Y118.063 E9.50814
G1 X96.871 Y118.013 E9.51204
G1 X97.470 Y117.867 E9.53163
G1 X95.636 Y116.033 E9.61402
G1 X96.033 Y115.848 E9.62793
G1 X96.289 Y115.779 E9.63636
G1 X98.200 Y117.689 E9.72217
G1 X98.443 Y117.630 E9.73012
G1 X99.012 Y117.594 E9.74823
G1 X97.005 Y115.587 E9.83838
G1 X97.720 Y115.396 E9.86191
G1 X99.863 Y117.538 E9.95815
G1 X100.068 Y117.525 E9.96467
G1 X100.861 Y117.629 E9.99008
G1 X98.510 Y115.279 E10.09567
G1 X99.345 Y115.206 E10.12227
G1 X101.967 Y117.828 E10.24005
G1 X103.210 Y118.224 E10.28149
G1 X103.339 Y118.293 E10.28613
G1 X99.919 Y114.873 E10.43972
G1 E8.43972 F2400.00000
G92 E0
G1 X106.271 Y116.689 F7800.000
G1 E2.00000 F2400.00000
G1 F1800
G1 X110.058 Y120.476 E2.17009
G1 E0.17009 F2400.00000
G92 E0
G1 X96.911 Y138.173 F7800.000
G1 E2.00000 F2400.00000
G1 F1800
G1 X88.972 Y130.234 E2.35660
G1 X89.101 Y130.714 E2.37239
G1 X89.586 Y131.755 E2.40887
G1 X95.573 Y137.742 E2.67780
G1 E0.67780 F2400.00000
G92 E0
G1 X93.729 Y136.804 F7800.000
G1 E2.00000 F2400.00000
G1 F1800
G1 X89.943 Y133.018 E2.17006
G1 Z0.650 F7800.000
G1 E0.17006 F2400.00000
G92 E0
G1 X106.908 Y130.768 F7800.000
G1 E2.00000 F2400.00000
G1 F3600
G1 X106.087 Y131.886 E2.02931
G1 X105.124 Y132.821 E2.05769
G1 X104.220 Y133.520 E2.08184
G1 X104.022 Y133.658 E2.08695
G1 X102.767 Y134.294 E2.11669
G1 X101.437 Y134.693 E2.14605
G1 X100.051 Y134.850 E2.17554
G1 X98.650 Y134.805 E2.20517
G1 X97.251 Y134.510 E2.23541
G1 X95.907 Y133.969 E2.26604
G1 X94.674 Y133.200 E2.29675
G1 X93.583 Y132.219 E2.32777
G1 X92.673 Y131.054 E2.35902
G1 X91.975 Y129.738 E2.39051
G1 X91.512 Y128.310 E2.42225
G1 X91.304 Y126.812 E2.45423
G1 X91.360 Y125.289 E2.48645
G1 X91.468 Y124.784 E2.49736
G1 X91.747 Y123.743 E2.52014
G1 X92.394 Y122.356 E2.55251
G1 X93.273 Y121.100 E2.58491
G1 X94.371 Y120.009 E2.61763
G1 X95.657 Y119.158 E2.65023
G1 X97.051 Y118.551 E2.68238
G1 X98.525 Y118.195 E2.71443
G1 X100.035 Y118.100 E2.74641
G1 X101.538 Y118.281 E2.77841
G1 X102.972 Y118.721 E2.81014
G1 X104.299 Y119.404 E2.84169
G1 X105.478 Y120.306 E2.87306
G1 X106.472 Y121.395 E2.90424
G1 X107.253 Y122.634 E2.93520
G1 X107.798 Y123.982 E2.96594
G1 X108.090 Y125.380 E2.99613
G1 X108.132 Y126.812 E3.02641
G1 X108.105 Y127.032 E3.03111
G1 X107.924 Y128.209 E3.05628
G1 X107.522 Y129.524 E3.08534
G1 X106.941 Y130.701 E3.11310
G1 X106.480 Y130.509 F7800.000
G1 F3600
G1 X105.710 Y131.557 E3.14060
